svg/emoji_u1f9b9_1f3fc_200d_2642.svg

<?xml version="1.0" encoding="UTF-8" standalone="no"?>
<svg
   xmlns:dc="http://purl.org/dc/elements/1.1/"
   xmlns:cc="http://creativecommons.org/ns#"
   xmlns:rdf="http://www.w3.org/1999/02/22-rdf-syntax-ns#"
   xmlns:svg="http://www.w3.org/2000/svg"
   xmlns="http://www.w3.org/2000/svg"
   xmlns:sodipodi="http://sodipodi.sourceforge.net/DTD/sodipodi-0.dtd"
   xmlns:inkscape="http://www.inkscape.org/namespaces/inkscape"
   width="128"
   height="128"
   style="enable-background:new 0 0 128 128;"
   version="1.1"
   id="svg12"
   sodipodi:docname="emoji_u1f9b9_200d_2642.svg"
   inkscape:version="0.92.3 (2405546, 2018-03-11)">
  <metadata
     id="metadata18">
    <rdf:RDF>
      <cc:Work
         rdf:about="">
        <dc:format>image/svg+xml</dc:format>
        <dc:type
           rdf:resource="http://purl.org/dc/dcmitype/StillImage" />
        <dc:title></dc:title>
      </cc:Work>
    </rdf:RDF>
  </metadata>
  <defs
     id="defs16" />
  <sodipodi:namedview
     pagecolor="#ffffff"
     bordercolor="#666666"
     borderopacity="1"
     objecttolerance="10"
     gridtolerance="10"
     guidetolerance="10"
     inkscape:pageopacity="0"
     inkscape:pageshadow="2"
     inkscape:window-width="993"
     inkscape:window-height="506"
     id="namedview14"
     showgrid="false"
     inkscape:snap-grids="false"
     inkscape:object-paths="false"
     inkscape:snap-global="true"
     inkscape:zoom="2.6074563"
     inkscape:cx="90.866192"
     inkscape:cy="84.70865"
     inkscape:window-x="755"
     inkscape:window-y="477"
     inkscape:window-maximized="0"
     inkscape:current-layer="svg12"
     inkscape:snap-smooth-nodes="true">
    <inkscape:grid
       type="xygrid"
       id="grid865" />
  </sodipodi:namedview>
  <g
     id="XMLID_861_">
    <path
       inkscape:connector-curvature="0"
       style="fill:#c48e6a"
       d="m 106.91,66.04 c 0,0 7.87,1.36 7.87,9.84 0,7.48 -5.74,10.43 -11.48,10.43 V 66.04 Z"
       id="XMLID_865_" />
    <path
       inkscape:connector-curvature="0"
       style="fill:#c48e6a"
       d="m 21.09,66.04 c 0,0 -7.87,1.36 -7.87,9.84 0,7.48 5.74,10.43 11.48,10.43 V 66.04 Z"
       id="XMLID_862_" />
  </g>
  <path
     inkscape:connector-curvature="0"
     style="fill:#e0bb95"
     d="m 64,10.55 c -33.91,0 -42.78,26.29 -42.78,63.22 0,38.29 24.61,48.19 42.78,48.19 17.9,0 42.78,-9.62 42.78,-48.19 0,-36.94 -8.87,-63.22 -42.78,-63.22 z"
     id="XMLID_860_" />
  <path
     inkscape:connector-curvature="0"
     style="fill:#513f35"
     d="m 76.38,100.52 c -1.73,0 -12.38,0 -12.38,0 0,0 -10.65,0 -12.38,0 -1.42,0 -2.03,0.95 -1.09,2.38 1.31,2 6.19,5.85 13.47,5.85 7.28,0 12.16,-3.85 13.47,-5.85 0.94,-1.43 0.33,-2.38 -1.09,-2.38 z"
     id="XMLID_969_" />
  <path
     inkscape:connector-curvature="0"
     style="fill:#c48e6a"
     d="m 69.98,89.99 c -2.11,0.6 -4.29,0.89 -5.98,0.89 -1.69,0 -3.87,-0.29 -5.98,-0.89 -0.9,-0.26 -1.25,0.6 -0.93,1.17 0.67,1.18 3.36,3.55 6.91,3.55 3.55,0 6.24,-2.37 6.91,-3.55 0.33,-0.57 -0.03,-1.42 -0.93,-1.17 z"
     id="XMLID_960_" />
  <path
     style="fill:#1f0036;fill-opacity:0.87860083;stroke:none;stroke-width:0.99999994px;stroke-linecap:butt;stroke-linejoin:miter;stroke-opacity:1"
     d="M 40.322266 66.925781 C 32.967143 66.925781 22.494141 70.845703 22.494141 70.845703 C 22.03656 71.231448 21.624853 71.622814 21.234375 72.017578 C 21.229789 72.601612 21.220703 73.180011 21.220703 73.769531 C 21.220703 77.96678 21.531503 81.804413 22.082031 85.34375 C 25.592071 85.794379 32.645399 86.605469 37.972656 86.605469 C 46.681043 86.770069 56.244035 83.503906 63.402344 83.503906 L 66.279297 83.503906 C 73.437607 83.503906 82.998645 86.770069 91.707031 86.605469 C 96.278911 86.605469 102.06132 86.009151 105.88867 85.548828 C 106.45799 81.955045 106.7793 78.050018 106.7793 73.769531 C 106.7793 72.733417 106.77017 71.708449 106.75586 70.689453 C 105.59872 70.245771 96.259416 66.742145 89.357422 66.925781 C 79.949425 67.176093 68.679482 72.00195 64.839844 72.001953 C 61.863043 72.001956 50.566773 66.925781 40.322266 66.925781 z "
     id="path867-8" />
  <path
     inkscape:connector-curvature="0"
     style="fill:#bfa055"
     d="m 65.02,5.72 c 0,0 -0.66,-0.02 -0.95,-0.02 -0.29,0 -0.95,0.02 -0.95,0.02 C 26.53,6.43 15.5,28.44 15.5,43.71 c 0,14.84 0.01,25.74 0.01,25.74 0,0 0.58,-0.6 1.66,-1.44 1.15,-0.89 2.41,-1.39 2.41,-1.39 L 21.43,79 33.62,53.52 c 0.07,-0.16 0.24,-0.25 0.41,-0.23 l 7.23,0.8 c 7.26,0.81 14.56,1.2 21.86,1.22 v 0.02 c 0.32,0 0.63,-0.01 0.95,-0.01 0.32,0 0.63,0.01 0.95,0.01 v -0.02 c 7.3,-0.02 14.59,-0.41 21.86,-1.22 l 7.23,-0.8 c 0.17,-0.02 0.34,0.07 0.41,0.23 L 106.71,79 108.56,66.61 c 0,0 1.27,0.5 2.41,1.39 1.08,0.84 1.66,1.44 1.66,1.44 0,0 0.01,-10.9 0.01,-25.74 C 112.65,28.44 101.62,6.43 65.02,5.72 Z"
     id="XMLID_35_" />
  <path
     inkscape:connector-curvature="0"
     style="fill:#444444"
     d="m 41.426562,71.14664 c -1.76069,1.178208 -2.955078,3.439494 -2.955078,6.042969 C 38.471484,80.99961 41.04,84.09 44.2,84.09 c 3.16,0 5.710937,-3.09039 5.710937,-6.900391 0,-1.143494 -0.231761,-2.218603 -0.636718,-3.167969 z"
     id="XMLID_196_" />
  <path
     inkscape:connector-curvature="0"
     style="fill:#444444"
     d="m 86.571093,71.148594 -7.853515,2.876953 c -0.405151,0.948396 -0.636719,2.022168 -0.636719,3.164062 0,3.810001 2.560703,6.900391 5.720703,6.900391 3.15,0 5.71875,-3.09039 5.71875,-6.900391 0,-2.602297 -1.192999,-4.862359 -2.949219,-6.041015 z"
     id="XMLID_195_" />
</svg>

<svg xmlns="http://www.w3.org/2000/svg" width="128" height="128"><g fill="#c48e6a"><path d="M106.91 66.04s7.87 1.36 7.87 9.84c0 7.48-5.74 10.43-11.48 10.43V66.04zM21.09 66.04s-7.87 1.36-7.87 9.84c0 7.48 5.74 10.43 11.48 10.43V66.04z"/></g><path d="M64 10.55c-33.91 0-42.78 26.29-42.78 63.22 0 38.29 24.61 48.19 42.78 48.19 17.9 0 42.78-9.62 42.78-48.19 0-36.94-8.87-63.22-42.78-63.22z" fill="#e0bb95"/><path d="M76.38 100.52H64 51.62c-1.42 0-2.03.95-1.09 2.38 1.31 2 6.19 5.85 13.47 5.85s12.16-3.85 13.47-5.85c.94-1.43.33-2.38-1.09-2.38z" fill="#513f35"/><path d="M69.98 89.99c-2.11.6-4.29.89-5.98.89-1.69 0-3.87-.29-5.98-.89-.9-.26-1.25.6-.93 1.17.67 1.18 3.36 3.55 6.91 3.55 3.55 0 6.24-2.37 6.91-3.55.33-.57-.03-1.42-.93-1.17z" fill="#c48e6a"/><path d="M40.322 66.926c-7.355 0-17.828 3.92-17.828 3.92-.457.385-.87.777-1.26 1.172-.004.584-.013 1.162-.013 1.752 0 4.197.31 8.034.861 11.574 3.51.45 10.563 1.261 15.89 1.261 8.709.165 18.272-3.101 25.43-3.101h2.877c7.159 0 16.72 3.266 25.428 3.101 4.572 0 10.354-.596 14.182-1.056.569-3.594.89-7.499.89-11.78 0-1.036-.009-2.06-.023-3.08-1.157-.443-10.497-3.947-17.399-3.763-9.408.25-20.678 5.076-24.517 5.076-2.977 0-14.273-5.076-24.518-5.076z" fill="#1f0036" fill-opacity=".879"/><path d="M65.02 5.72s-.66-.02-.95-.02c-.29 0-.95.02-.95.02-36.59.71-47.62 22.72-47.62 37.99 0 14.84.01 25.74.01 25.74s.58-.6 1.66-1.44c1.15-.89 2.41-1.39 2.41-1.39L21.43 79l12.19-25.48c.07-.16.24-.25.41-.23l7.23.8c7.26.81 14.56 1.2 21.86 1.22v.02c.32 0 .63-.01.95-.01.32 0 .63.01.95.01v-.02c7.3-.02 14.59-.41 21.86-1.22l7.23-.8c.17-.02.34.07.41.23L106.71 79l1.85-12.39s1.27.5 2.41 1.39c1.08.84 1.66 1.44 1.66 1.44s.01-10.9.01-25.74c.01-15.26-11.02-37.27-47.62-37.98z" fill="#bfa055"/><path d="M41.427 71.147c-1.761 1.178-2.956 3.44-2.956 6.043 0 3.81 2.569 6.9 5.729 6.9s5.71-3.09 5.71-6.9a8.073 8.073 0 0 0-.636-3.168zM86.571 71.149l-7.853 2.877a8.052 8.052 0 0 0-.637 3.164c0 3.81 2.56 6.9 5.72 6.9 3.15 0 5.72-3.09 5.72-6.9 0-2.603-1.194-4.863-2.95-6.041z" fill="#444"/></svg>
